X:1
T:Building for Eternity
T:N. B. Sargent, 1887
T:Building for Eternity
T:Public Domain
T:Public Domain
C:N. B. Sargent, 1887
Z:Public Domain
%%score ( 1 2 ) ( 3 4 )
L:1/8
M:6/8
K:E
V:1 treble 
V:2 treble 
V:3 bass 
V:4 bass 
V:1
 E/[EF]/ | [EG][EG][EG] ([EG][EG])[DF] | E3 z2 ([EG]/[FA]/) | ([GB][GB])[GB] ([Ae][Ae])[Ac] | %4
w: 1.~We are|ing in sorrow or * joy,|A temple *|world~may * not see, * Which|
w: 2.~Ev- ery|that we’ve ev- er * had,|Its own~lit- *|place * has filled; * Every|
w: 3.~Ev- ery|that so light- ly * falls,|Giving some *|joy * or pain, * Will|
w: 4.~Are you|ing for God a- * lone?|Are~you building *|faith * and love * A|
 [GB]3 z2 ([GB]/[FA]/) | [EG][EG][EG] ([EG][EA])[EB] | [Ec]3 z2 ([EA]/[CF]/) | %7
w: time can- *|not mar~nor de- stroy: * We|build for *|
w: deed we *|have done,~good or bad, * Is~a|stone in *|
w: shine in *|our tem- ple walls, * Or|ev- er *|
w: tem- ple *|the Father will own, * In~the|ci- ty *|
 [B,E][B,D][B,E] ([DG][DG])[DF] | E3- E2 ||"^Refrain" [EG]/[FA]/ | [GB]2 [EG] [EG]2 [EB] | %11
w: e- ter- ni- ty. * *||||
w: the temple we build. * We|are *|ing ev-|ery day A tem-|
w: its beau- ty stain. * *||||
w: of light a- bove? * *||||
 (B,2 C [B,E]2) [B,E] | [DF][DF][DF] [DF][EG][FA] | [EG]3- [EG]2 z | [Ge]2 [GB] [GB]2 [EG] | %15
w: ||||
w: ple * * the|may not see, Build- * ing,|build- *|ing ev- ery day,|
w: ||||
w: ||||
 [B,E]2 B, [B,E]2 E/E/ | [EF]2 [EF] [EG]2 [DF] | E3- E2 |] %18
w: |||
w: Build- ing for e- ter-|||
w: |||
w: |||
V:2
 E/ x/ | x6 | E3 x3 | x6 | x6 | x6 | x6 | x6 | E3- E2 || x | x6 | E3- x3 | x6 | x6 | x6 | %15
w: build-||the|||||||||||||
w: thought||tle||||||build- *|||world||||
w: word||heart|||||||||||||
w: build-||in|||||||||||||
 x2 B, x E/E/ x | x6 | E3- E2 |] %18
w: |||
w: ni- ty. *|||
w: |||
w: |||
V:3
 [E,G,]/[E,A,]/ | [E,B,][E,B,][E,B,] ([B,,B,][B,,B,])[B,,A,] | [E,G,]3 z2 ([E,B,]/[E,B,]/) | %3
 ([E,E][E,E])[E,E] ([A,,C][A,,C])[A,,E] | [E,E]3 z2 ([E,B,]/[E,B,]/) | %5
 [E,B,][E,B,][E,B,] (E,/=D,/)[C,A,][B,,G,] | [A,,A,]3 z2 ([A,,C]/[A,,A,]/) | %7
 [B,,G,][B,,F,][B,,G,] ([B,,B,][B,,B,])[B,,A,] | [E,G,]3- [E,G,]2 || [E,B,]/[E,B,]/ | %10
 [E,E]2 [E,B,] [E,B,]2 [E,G,] | (G,2 A, [E,G,]2) [E,G,] | %12
 [B,,B,][B,,B,][B,,B,] [B,,B,][B,,B,][B,,B,] | [E,B,]3- [E,B,]2 z | [E,B,]2 [E,E] [E,E]2 [E,B,] | %15
 [G,B,]2 [F,A,] [E,G,]2 [G,,B,]/[G,,B,]/ | [A,,C]2 [^A,,C] [B,,B,]2 [B,,^A,] | [E,G,]3- [E,G,]2 |] %18
V:4
 x | x6 | x6 | x6 | x6 | x3 B, x2 | x6 | x6 | x5 || x | x6 | E,3- x3 | x6 | x6 | x6 | x6 | x6 | %17
 x5 |] %18

